assets/2023/icons/gitignore.svg

<!-- Copyright 2000-2021 JetBrains s.r.o. and contributors. Use of this source code is governed by the Apache 2.0 license. -->
<svg width="16" height="16" viewBox="0 0 16 16" fill="none" xmlns="http://www.w3.org/2000/svg">
<path fill-rule="evenodd" clip-rule="evenodd" d="M8.70711 1.30476C8.31658 0.914239 7.68342 0.914238 7.29289 1.30476L6.38067 2.21698L7.33533 3.17164C7.83709 2.8747 8.49461 2.94188 8.9259 3.37317C9.35718 3.80445 9.42436 4.46197 9.12742 4.96373L11.0361 6.87236C11.5378 6.57557 12.1952 6.64278 12.6264 7.07401C13.1373 7.58486 13.1373 8.41312 12.6264 8.92398C12.1155 9.43483 11.2873 9.43483 10.7764 8.92398C10.3457 8.49324 10.2781 7.83684 10.5738 7.33532L8.66437 5.42591C8.55791 5.48864 8.44448 5.535 8.32771 5.56501V10.4334C8.54666 10.4898 8.75385 10.6037 8.9253 10.7751C9.43615 11.286 9.43615 12.1143 8.9253 12.6251C8.41444 13.136 7.58618 13.136 7.07533 12.6251C6.56448 12.1143 6.56448 11.286 7.07533 10.7751C7.24692 10.6036 7.45432 10.4896 7.67348 10.4333V5.56485C7.45454 5.50847 7.24736 5.39457 7.07593 5.22313C6.64525 4.79245 6.57766 4.13618 6.87315 3.63469L5.91806 2.6796L1.30528 7.29238C0.914755 7.6829 0.914754 8.31607 1.30528 8.70659L7.29289 14.6942C7.68342 15.0847 8.31658 15.0847 8.70711 14.6942L14.6947 8.70659C15.0852 8.31607 15.0852 7.6829 14.6947 7.29238L8.70711 1.30476Z" fill="#F34E29"/>
</svg>

<svg xmlns="http://www.w3.org/2000/svg" width="16" height="16" fill="none" viewBox="0 0 16 16"><path fill="#F34E29" fill-rule="evenodd" d="M8.707 1.305a1 1 0 0 0-1.414 0l-.912.912.954.955a1.309 1.309 0 0 1 1.792 1.792l1.91 1.908a1.309 1.309 0 1 1-.463.463l-1.91-1.91a1.3 1.3 0 0 1-.336.14v4.868a1.308 1.308 0 1 1-.654 0V5.565a1.31 1.31 0 0 1-.8-1.93l-.956-.955-4.613 4.612a1 1 0 0 0 0 1.415l5.988 5.987a1 1 0 0 0 1.414 0l5.988-5.987a1 1 0 0 0 0-1.415z" clip-rule="evenodd"/></svg>
